src/assets/images/logo.svg

<svg width="152" height="64" viewBox="0 0 152 64" fill="none" xmlns="http://www.w3.org/2000/svg">
  <rect width="152" height="64" rx="4" fill="#D73B3B"/>
  <mask id="mask0_8_388" style="mask-type:alpha" maskUnits="userSpaceOnUse" x="0" y="0" width="152" height="64">
    <rect width="152" height="64" rx="4" fill="#D73B3B"/>
  </mask>
  <g mask="url(#mask0_8_388)">
    <rect x="40" y="69.2401" width="182.522" height="72.8274" transform="rotate(-15 40 69.2401)" fill="#C53333"/>
    <rect x="63.1822" y="63.0285" width="12" height="11.9844" transform="rotate(-15 63.1822 63.0285)" fill="white"/>
    <rect x="86.3644" y="56.8168" width="12" height="11.9844" transform="rotate(-15 86.3644 56.8168)" fill="white"/>
    <rect x="109.547" y="50.6052" width="12" height="11.9844" transform="rotate(-15 109.547 50.6052)" fill="white"/>
    <rect x="132.729" y="44.3935" width="12" height="11.9844" transform="rotate(-15 132.729 44.3935)" fill="white"/>
    <rect x="147.422" y="52.8637" width="12" height="11.9844" transform="rotate(-15 147.422 52.8637)" fill="white"/>
    <rect x="124.24" y="59.0753" width="12" height="11.9844" transform="rotate(-15 124.24 59.0753)" fill="white"/>
    <rect x="101.057" y="65.287" width="12" height="11.9844" transform="rotate(-15 101.057 65.287)" fill="white"/>
    <path d="M35.008 40H34.72L41.896 23.2L42.16 23.08L48.208 40H46.168L44.296 34.72H37.288L35.008 40ZM41.152 25.792L37.384 34.48H44.224L41.152 25.792ZM57.8153 40H48.6953V23.2H50.6873V39.76H57.8153V40ZM69.364 23.2H69.676V32.8C69.676 35.312 69.18 37.16 68.188 38.344C67.196 39.512 65.9 40.096 64.3 40.096C63.292 40.096 62.436 40.008 61.732 39.832C61.028 39.64 60.364 39.296 59.74 38.8C58.46 37.808 57.82 35.808 57.82 32.8V23.2H59.812V32.776C59.812 35.688 60.252 37.632 61.132 38.608C61.58 39.088 62.044 39.416 62.524 39.592C63.02 39.768 63.612 39.856 64.3 39.856C65.836 39.856 67.06 39.296 67.972 38.176C68.9 37.04 69.364 35.24 69.364 32.776V23.2ZM70.9994 23.392C72.8554 23.264 74.4954 23.2 75.9194 23.2C79.8714 23.2 81.8474 24.52 81.8474 27.16C81.8474 28.28 81.5754 29.28 81.0314 30.16C80.4874 31.04 79.5514 31.624 78.2234 31.912L83.0234 40H80.7914L76.0874 32.056H72.9914V40H70.9994V23.392ZM75.9194 23.44C74.9914 23.44 74.0154 23.496 72.9914 23.608V31.816H76.5434C78.7994 31.72 79.9274 30.184 79.9274 27.208C79.9274 25.992 79.5914 25.064 78.9194 24.424C78.2474 23.768 77.2474 23.44 75.9194 23.44ZM82.5269 32.008C82.5269 29.096 83.2309 26.888 84.6389 25.384C86.0629 23.864 87.8869 23.104 90.1109 23.104C92.3349 23.104 94.1029 23.76 95.4149 25.072C96.7429 26.384 97.4069 28.48 97.4069 31.36C97.4069 34.24 96.7029 36.416 95.2949 37.888C93.8869 39.36 92.0069 40.096 89.6549 40.096C87.6229 40.096 85.9589 39.512 84.6629 38.344C83.9909 37.736 83.4629 36.896 83.0789 35.824C82.7109 34.736 82.5269 33.464 82.5269 32.008ZM90.0389 23.344C88.4229 23.344 87.0949 24.064 86.0549 25.504C85.0309 26.944 84.5189 29.056 84.5189 31.84C84.5189 34.624 85.0069 36.656 85.9829 37.936C86.9589 39.216 88.2549 39.856 89.8709 39.856C91.5029 39.856 92.8309 39.136 93.8549 37.696C94.8949 36.24 95.4149 34.136 95.4149 31.384C95.4149 28.616 94.9189 26.584 93.9269 25.288C92.9509 23.992 91.6549 23.344 90.0389 23.344ZM98.5579 40H98.2459V23.2H99.0619L109.046 38.728V23.2H109.358V40H107.606L98.5579 26.08V40ZM110.912 23.44V23.2H115.184V23.44H114.008V39.76H115.184V40H110.912V39.76H112.016V23.44H110.912Z" fill="#FAFAFA"/>
  </g>
</svg>

<svg width="152" height="64" fill="none" xmlns="http://www.w3.org/2000/svg"><rect width="152" height="64" rx="4" fill="#D73B3B"/><mask id="a" style="mask-type:alpha" maskUnits="userSpaceOnUse" x="0" y="0" width="152" height="64"><rect width="152" height="64" rx="4" fill="#D73B3B"/></mask><g mask="url(#a)"><path fill="#C53333" d="M40 69.24L216.303 22l18.849 70.345-176.303 47.24z"/><path fill="#fff" d="M63.182 63.029l11.591-3.106L77.875 71.5l-11.591 3.106zM86.364 56.817l11.591-3.106 3.102 11.576-11.591 3.106zM109.547 50.605l11.591-3.106 3.102 11.576-11.591 3.106zM132.73 44.394l11.59-3.106 3.102 11.576-11.591 3.106zM147.422 52.864l11.591-3.106 3.102 11.576-11.591 3.106z"/><path fill="#fff" d="M124.24 59.075l11.591-3.106 3.102 11.576-11.591 3.106zM101.057 65.287l11.591-3.106 3.102 11.576-11.591 3.106z"/><path d="M35.008 40h-.288l7.176-16.8.264-.12L48.208 40h-2.04l-1.872-5.28h-7.008L35.008 40zm6.144-14.208l-3.768 8.688h6.84l-3.072-8.688zM57.815 40h-9.12V23.2h1.992v16.56h7.128V40zm11.549-16.8h.312v9.6c0 2.512-.496 4.36-1.488 5.544-.992 1.168-2.288 1.752-3.888 1.752-1.008 0-1.864-.088-2.568-.264A5.524 5.524 0 0159.74 38.8c-1.28-.992-1.92-2.992-1.92-6v-9.6h1.992v9.576c0 2.912.44 4.856 1.32 5.832.448.48.912.808 1.392.984.496.176 1.088.264 1.776.264 1.536 0 2.76-.56 3.672-1.68.928-1.136 1.392-2.936 1.392-5.4V23.2zm1.635.192a72.464 72.464 0 014.92-.192c3.952 0 5.928 1.32 5.928 3.96 0 1.12-.272 2.12-.816 3-.544.88-1.48 1.464-2.808 1.752l4.8 8.088h-2.232l-4.704-7.944h-3.096V40H71V23.392zm4.92.048c-.928 0-1.904.056-2.928.168v8.208h3.552c2.256-.096 3.384-1.632 3.384-4.608 0-1.216-.336-2.144-1.008-2.784-.672-.656-1.672-.984-3-.984zm6.608 8.568c0-2.912.704-5.12 2.112-6.624 1.424-1.52 3.248-2.28 5.472-2.28s3.992.656 5.304 1.968c1.328 1.312 1.992 3.408 1.992 6.288 0 2.88-.704 5.056-2.112 6.528-1.408 1.472-3.288 2.208-5.64 2.208-2.032 0-3.696-.584-4.992-1.752-.672-.608-1.2-1.448-1.584-2.52-.368-1.088-.552-2.36-.552-3.816zm7.512-8.664c-1.616 0-2.944.72-3.984 2.16-1.024 1.44-1.536 3.552-1.536 6.336 0 2.784.488 4.816 1.464 6.096.976 1.28 2.272 1.92 3.888 1.92 1.632 0 2.96-.72 3.984-2.16 1.04-1.456 1.56-3.56 1.56-6.312 0-2.768-.496-4.8-1.488-6.096-.976-1.296-2.272-1.944-3.888-1.944zM98.558 40h-.312V23.2h.816l9.984 15.528V23.2h.312V40h-1.752l-9.048-13.92V40zm12.354-16.56v-.24h4.272v.24h-1.176v16.32h1.176V40h-4.272v-.24h1.104V23.44h-1.104z" fill="#FAFAFA"/></g></svg>
